X:1
T:A Song of Praise
T:J. G. Wilson
T:A Song of Praise
T:Public Domain
T:Public Domain
C:J. G. Wilson
Z:Public Domain
%%score ( 1 2 ) ( 3 4 )
L:1/8
M:4/4
K:Eb
V:1 treble 
V:2 treble 
V:3 bass 
V:4 bass 
V:1
 B,2 | [B,E]2 [B,E]2 (EF)([EG][FA]) | [GB]2 [Ac]2 [GB]2 [EG]2 | [GB]3 [GB] [GB]2 [EG]2 | %4
w: 1.~The|drous work the * Lord *|done Let ev- ery|voice pro- claim! And|
w: 2.~Un-|the Lord doth * praise *|long, O tell it|ev- ery- where! Let|
w: 3.~We’ll|the power of * Je- *|name, And His a-|ton- ing blood; To-|
w: 4.~Let|ery heart and * ev- *|tongue As one u-|nit- ed host Praise|
 [DF]6 B,2 | [B,E]2 [B,E]2 (EF)([EG][FA]) | [GB]2 [Ac]2 [GB]2 [EG]2 | %7
w: for the|of grace be- * gun, *|won- drous bat- tle|
w: ev- ery|somed soul pro- * long *|loud ho- san- nah|
w: day and|er- more the * same, *|vil- est sin- ner|
w: God for|His arm hath * done— *|God the Fa- ther,|
 [B,E]2 [B,E]2 (EF)([EG][FA]) | [GB]2 [Ac]2 [GB]2 [EG]2 | [DF]2 [FB]2 [Fd]2 [Ec]2 | [DB]6 || %11
w: fought and won, * Give *|ry to His name!|||
w: of the song— * The *|doth an- swer prayer!|||
w: to re- claim, * And *|Him back to God.|||
w: God the Son, * And *|the Ho- ly Ghost!|||
"^Refrain" [AB]2 | [Ge]2 [Ge]2 [Ge]2 (dc) | [GB]2 [EG]4 [GB]2 | [GB]2 ([FA][EG]) [FA]2 [DB]2 | %15
w: ||||
w: ||||
w: ||||
w: ||||
 [EG]6 [GB]2 | [Ge]2 [Ge]2 [Ge]2 (dc) | [GB]2 [Ge]4 (EF) | [EG]2 (BA) [EG]2 [DF]2 | [B,E]6 |] %20
w: |||||
w: |||||
w: |||||
w: |||||
V:2
 B,2 | x4 B,2 x2 | x8 | x8 | x6 B,2 | x4 B,2 x2 | x8 | x4 B,2 x2 | x8 | x8 | x6 || x2 | x6 A2 | %13
w: won-|has|||work|The||glo-||||||
w: to|be-|||ran-|The||Lord||||||
w: sing|sus’|||ev-|The||bring||||||
w: ev-|ery|||what|Praise||God||||||
 x8 | x8 | x8 | x6 A2 | x6 E2 | x2 E2 x4 | x6 |] %20
w: |||||||
w: |||||||
w: |||||||
w: |||||||
V:3
 [E,G,]2 | [E,G,]2 [E,G,]2 (G,A,) [E,B,]2 | [E,E]2 [E,E]2 [E,E]2 [E,B,]2 | %3
w: ~|~ ~ ~ * ~|~ ~ ~ ~|
 [E,E]3 [E,E] [E,E]2 [E,B,]2 | [B,,B,]6 [D,A,]2 | [E,G,]2 [E,G,]2 (G,A,) [E,B,]2 | %6
w: ~ ~ ~ ~|~ ~|~ ~ ~ * ~|
 [E,E]2 [E,E]2 [E,E]2 [E,B,]2 | [E,G,]2 [E,G,]2 (G,A,) [E,B,]2 | [E,E]2 [E,E]2 [E,E]2 [E,B,]2 | %9
w: ~ ~ ~ ~|~ ~ ~ * ~|~ ~ ~ ~|
 [F,B,]2 [F,D]2 [F,B,]2 [F,=A,]2 | [B,,B,]6 || B,2 | [E,B,]2 [E,B,]2 [E,B,]2 (CD) | %13
w: ~ ~ We plead-|ed|for|Spir- it, He came *|
 [E,E]2 [E,B,]4 [E,B,]2 | [B,,B,]2 [B,,B,]2 [B,,B,]2 [B,,B,]2 | [E,B,]6 [E,E]2 | %16
w: might- y power;|We plead- ed for|the drop-|
 [E,B,]2 [E,B,]2 [E,B,]2 (CD) | [E,E]2 [E,B,]4 (G,A,) | [E,B,]2 ([G,B,][A,C]) B,2 [B,,A,]2 | %19
w: pings, And lo, He *|the shower! * *||
 [E,G,]6 |] %20
w: |
V:4
 x2 | x4 E,2 x2 | x8 | x8 | x8 | x4 E,2 x2 | x8 | x4 E,2 x2 | x8 | x8 | x6 || B,2 | x6 E,2 | x8 | %14
w: |~||||~||~||||the|in||
 x8 | x8 | x6 E,2 | x6 E,2 | x4 B,2 x2 | x6 |] %20
w: ||sent||||

